explorer/src/assets/logo/verax-logo-circle.svg

<?xml version="1.0" encoding="UTF-8"?>
<!DOCTYPE svg PUBLIC "-//W3C//DTD SVG 1.1//EN" "http://www.w3.org/Graphics/SVG/1.1/DTD/svg11.dtd">
<svg
  xmlns="http://www.w3.org/2000/svg"
  version="1.1"
  width="171px"
  height="173px"
  style="
    shape-rendering: geometricPrecision;
    text-rendering: geometricPrecision;
    image-rendering: optimizeQuality;
    fill-rule: evenodd;
    clip-rule: evenodd;
  "
  xmlns:xlink="http://www.w3.org/1999/xlink"
>
  <g>
    <path
      style="opacity: 0.981"
      fill="#676455"
      d="M 74.5,-0.5 C 81.5,-0.5 88.5,-0.5 95.5,-0.5C 137.471,7.47081 162.471,32.4708 170.5,74.5C 170.5,82.1667 170.5,89.8333 170.5,97.5C 162.471,139.529 137.471,164.529 95.5,172.5C 88.5,172.5 81.5,172.5 74.5,172.5C 32.5292,164.529 7.52918,139.529 -0.5,97.5C -0.5,89.8333 -0.5,82.1667 -0.5,74.5C 7.52918,32.4708 32.5292,7.47081 74.5,-0.5 Z"
    />
  </g>
  <g>
    <path
      style="opacity: 1"
      fill="#646153"
      d="M 44.5,34.5 C 51.5079,34.3337 58.5079,34.5004 65.5,35C 71.7987,36.9633 76.632,40.7966 80,46.5C 83.4806,54.619 87.1473,62.619 91,70.5C 96.1137,62.6071 100.447,54.2738 104,45.5C 106.552,41.2811 110.052,38.1145 114.5,36C 121.753,34.443 129.086,34.1097 136.5,35C 143.869,37.0352 148.535,41.7019 150.5,49C 139.942,77.9591 128.109,106.459 115,134.5C 109.598,142.702 101.931,146.702 92,146.5C 84.0748,146.867 77.4082,144.201 72,138.5C 70.1624,135.963 69.3291,133.129 69.5,130C 70.8678,123.401 72.5345,116.901 74.5,110.5C 67.5836,113.917 61.4169,112.917 56,107.5C 47.2716,91.3731 39.6049,74.7064 33,57.5C 29.4071,46.019 33.2404,38.3523 44.5,34.5 Z"
    />
  </g>
  <g>
    <path
      style="opacity: 1"
      fill="#a4af63"
      d="M 66.5,47.5 C 69.081,55.1628 72.081,62.6628 75.5,70C 71.2066,79.0497 67.2066,88.2164 63.5,97.5C 61.3095,99.9392 59.8095,99.2725 59,95.5C 51.5974,77.7925 44.0974,60.1258 36.5,42.5C 45.4815,41.3347 54.4815,41.168 63.5,42C 64.2291,44.0581 65.2291,45.8914 66.5,47.5 Z"
    />
  </g>
  <g>
    <path
      style="opacity: 1"
      fill="#a5af63"
      d="M 134.5,47.5 C 122.848,74.8075 111.182,102.141 99.5,129.5C 93.8722,130.495 88.2055,130.829 82.5,130.5C 79.7531,130.813 77.0865,130.48 74.5,129.5C 87.4037,100.365 99.7371,71.0315 111.5,41.5C 119.833,41.5 128.167,41.5 136.5,41.5C 136.396,43.7028 135.73,45.7028 134.5,47.5 Z"
    />
  </g>
  <g>
    <path
      style="opacity: 1"
      fill="#555246"
      d="M 66.5,47.5 C 68.0174,47.5106 69.1841,48.1772 70,49.5C 75.9559,58.6892 78.6226,68.6892 78,79.5C 75.6559,84.0274 73.6559,88.694 72,93.5C 70.6365,96.3633 68.4698,98.3633 65.5,99.5C 64.4777,99.1445 63.811,98.4778 63.5,97.5C 67.2066,88.2164 71.2066,79.0497 75.5,70C 72.081,62.6628 69.081,55.1628 66.5,47.5 Z"
    />
  </g>
  <g>
    <path
      style="opacity: 1"
      fill="#535045"
      d="M 82.5,130.5 C 88.2055,130.829 93.8722,130.495 99.5,129.5C 111.182,102.141 122.848,74.8075 134.5,47.5C 135.847,46.8288 137.014,46.8288 138,47.5C 138.738,51.2613 138.405,54.9279 137,58.5C 125.876,81.4086 115.876,104.742 107,128.5C 100.222,134.404 92.3889,136.071 83.5,133.5C 82.8728,132.583 82.5394,131.583 82.5,130.5 Z"
    />
  </g>
</svg>

<svg xmlns="http://www.w3.org/2000/svg" width="171" height="173" fill-rule="evenodd"
  clip-rule="evenodd" image-rendering="optimizeQuality" shape-rendering="geometricPrecision"
  text-rendering="geometricPrecision">
  <path fill="#676455"
    d="M74.5-.5h21c41.971 7.97 66.971 32.97 75 75v23c-8.029 42.029-33.029 67.029-75 75h-21c-41.97-7.971-66.97-32.971-75-75v-23c8.03-42.03 33.03-67.03 75-75Z"
    opacity=".981" />
  <path fill="#646153"
    d="M44.5 34.5c7.008-.166 14.008 0 21 .5 6.299 1.963 11.132 5.797 14.5 11.5a531.217 531.217 0 0 0 11 24 148.104 148.104 0 0 0 13-25c2.552-4.219 6.052-7.386 10.5-9.5a66.39 66.39 0 0 1 22-1c7.369 2.035 12.035 6.702 14 14a1055.448 1055.448 0 0 1-35.5 85.5c-5.402 8.202-13.069 12.202-23 12-7.925.367-14.592-2.299-20-8-1.838-2.537-2.67-5.371-2.5-8.5a215.167 215.167 0 0 1 5-19.5c-6.916 3.417-13.083 2.417-18.5-3a424.62 424.62 0 0 1-23-50c-3.593-11.481.24-19.148 11.5-23Z" />
  <path fill="#a4af63"
    d="M66.5 47.5a217.913 217.913 0 0 0 9 22.5 475.406 475.406 0 0 0-12 27.5c-2.19 2.44-3.69 1.772-4.5-2a5231.524 5231.524 0 0 0-22.5-53 122.06 122.06 0 0 1 27-.5c.73 2.058 1.73 3.891 3 5.5Z" />
  <path fill="#a5af63"
    d="M134.5 47.5a359295.376 359295.376 0 0 1-35 82 73.134 73.134 0 0 1-17 1 16.874 16.874 0 0 1-8-1 2520.472 2520.472 0 0 0 37-88h25c-.104 2.203-.77 4.203-2 6Z" />
  <path fill="#555246"
    d="M66.5 47.5c1.517.01 2.684.677 3.5 2 5.956 9.19 8.623 19.19 8 30a104.32 104.32 0 0 0-6 14c-1.364 2.863-3.53 4.863-6.5 6-1.022-.356-1.689-1.022-2-2a475.406 475.406 0 0 1 12-27.5 217.913 217.913 0 0 1-9-22.5Z" />
  <path fill="#535045"
    d="M82.5 130.5a73.134 73.134 0 0 0 17-1c11.682-27.359 23.348-54.692 35-82 1.347-.671 2.514-.671 3.5 0 .738 3.761.405 7.428-1 11a805.725 805.725 0 0 0-30 70c-6.778 5.904-14.611 7.571-23.5 5a5.577 5.577 0 0 1-1-3Z" />
</svg>
